src/assets/img/photos/button-appstore.svg

<svg width="123" height="40" viewBox="0 0 123 40" fill="none" xmlns="http://www.w3.org/2000/svg">
<g clip-path="url(#clip0_204_9)">
<rect width="123" height="40" fill="black"/>
<path d="M24.463 20.413C24.4733 19.5398 24.7052 18.6835 25.1368 17.9244C25.5685 17.1653 26.1859 16.5283 26.931 16.073C26.4584 15.3985 25.8353 14.8433 25.111 14.4512C24.3868 14.0591 23.5812 13.841 22.758 13.814C21.001 13.626 19.297 14.86 18.408 14.86C17.519 14.86 16.118 13.825 14.633 13.856C13.6736 13.8875 12.7386 14.1671 11.9193 14.6674C11.1 15.1678 10.4243 15.8718 9.95805 16.711C7.94005 20.214 9.44605 25.359 11.38 28.193C12.353 29.584 13.482 31.132 14.967 31.069C16.421 31.006 16.965 30.149 18.711 30.149C20.458 30.149 20.949 31.069 22.466 31.038C24.024 31.017 25.006 29.647 25.937 28.246C26.6358 27.2602 27.1726 26.1691 27.527 25.014C26.6222 24.6321 25.8499 23.992 25.3067 23.1737C24.7636 22.3554 24.4736 21.3952 24.473 20.413H24.463ZM21.597 11.953C22.4453 10.9343 22.8619 9.62452 22.758 8.303C21.46 8.43708 20.2607 9.05726 19.401 10.039C18.981 10.5175 18.6595 11.0742 18.4549 11.6772C18.2504 12.2802 18.1668 12.9177 18.209 13.553C18.8579 13.5594 19.4998 13.4187 20.0866 13.1416C20.6733 12.8645 21.1897 12.4582 21.597 11.953ZM42.795 27.556H37.848L36.656 31.069H34.565L39.25 18.081H41.425L46.1101 31.07H43.9771L42.784 27.557H42.794L42.795 27.556ZM38.361 25.935H42.2831L40.348 20.235H40.295L38.361 25.935ZM56.243 26.332C56.243 29.271 54.6641 31.163 52.2901 31.163C51.6885 31.194 51.0904 31.0556 50.5636 30.7636C50.0368 30.4716 49.6025 30.0376 49.3101 29.511H49.2681V34.196H47.3231V21.595H49.2051V23.174H49.237C49.541 22.6491 49.9814 22.2164 50.5116 21.9219C51.0418 21.6273 51.6418 21.4819 52.2481 21.501C54.654 21.501 56.2331 23.404 56.2331 26.332H56.243ZM54.246 26.332C54.246 24.418 53.252 23.153 51.746 23.153C50.241 23.153 49.258 24.439 49.258 26.333C49.258 28.225 50.261 29.522 51.746 29.522C53.231 29.522 54.246 28.267 54.246 26.332ZM66.659 26.332C66.659 29.271 65.0791 31.163 62.7061 31.163C62.1045 31.194 61.5064 31.0556 60.9796 30.7636C60.4528 30.4716 60.0185 30.0376 59.7261 29.511H59.684V34.196H57.739V21.595H59.621V23.174H59.6521C59.9561 22.649 60.3967 22.2162 60.927 21.9216C61.4574 21.627 62.0577 21.4817 62.6641 21.501C65.069 21.501 66.6481 23.404 66.6481 26.332H66.658H66.659ZM64.6611 26.332C64.6611 24.418 63.668 23.153 62.162 23.153C60.656 23.153 59.673 24.439 59.673 26.333C59.673 28.225 60.677 29.522 62.163 29.522C63.647 29.522 64.6621 28.267 64.6621 26.332H64.6611ZM73.55 27.451C73.6971 28.737 74.941 29.584 76.656 29.584C78.371 29.584 79.469 28.737 79.469 27.576C79.469 26.573 78.759 25.966 77.075 25.548L75.391 25.14C73.007 24.565 71.8981 23.446 71.8981 21.637C71.8981 19.399 73.854 17.861 76.625 17.861C79.396 17.861 81.247 19.399 81.31 21.637H79.344C79.229 20.34 78.152 19.556 76.594 19.556C75.035 19.556 73.958 20.35 73.958 21.501C73.958 22.421 74.638 22.954 76.311 23.373L77.744 23.728C80.41 24.356 81.519 25.433 81.519 27.326C81.519 29.752 79.584 31.278 76.509 31.278C73.634 31.278 71.6891 29.794 71.5641 27.441H73.55V27.451ZM85.713 19.357V21.595H87.511V23.132H85.713V28.35C85.713 29.166 86.068 29.542 86.863 29.542C87.072 29.542 87.292 29.522 87.501 29.501V31.027C87.1455 31.0897 86.7851 31.1215 86.424 31.122C84.51 31.122 83.757 30.4 83.757 28.57V23.142H82.377V21.605H83.757V19.367H85.713V19.357ZM88.557 26.332C88.557 23.352 90.314 21.48 93.043 21.48C95.773 21.48 97.529 23.352 97.529 26.332C97.529 29.312 95.793 31.184 93.043 31.184C90.293 31.184 88.557 29.323 88.557 26.332ZM95.564 26.332C95.564 24.292 94.622 23.08 93.054 23.08C91.485 23.08 90.544 24.293 90.544 26.332C90.544 28.372 91.474 29.584 93.054 29.584C94.633 29.584 95.564 28.392 95.564 26.332ZM99.14 21.605H100.991V23.215H101.033C101.162 22.7126 101.457 22.269 101.872 21.9574C102.286 21.6458 102.795 21.4848 103.313 21.501C103.532 21.501 103.762 21.521 103.982 21.574V23.394C103.701 23.3087 103.408 23.2696 103.114 23.278C102.831 23.2664 102.548 23.3164 102.286 23.4244C102.024 23.5324 101.789 23.6959 101.596 23.9036C101.403 24.1114 101.258 24.3584 101.169 24.6278C101.081 24.8972 101.052 25.1824 101.085 25.464V31.08H99.14V21.605ZM112.944 28.288C112.682 30.003 111.009 31.184 108.865 31.184C106.115 31.184 104.4 29.344 104.4 26.374C104.4 23.404 106.115 21.48 108.782 21.48C111.448 21.48 113.048 23.278 113.048 26.154V26.824H106.366V26.939C106.309 27.5905 106.513 28.238 106.932 28.7398C107.352 29.2415 107.953 29.5566 108.604 29.616C108.709 29.616 108.813 29.626 108.907 29.616C109.366 29.6579 109.825 29.5515 110.219 29.3124C110.613 29.0734 110.919 28.7143 111.093 28.288H112.944ZM106.377 25.464H111.114C111.132 25.1657 111.09 24.8668 110.992 24.5847C110.893 24.3025 110.74 24.0426 110.541 23.82C110.342 23.5973 110.1 23.4163 109.831 23.2874C109.561 23.1586 109.268 23.0843 108.97 23.069H108.792C108.156 23.0658 107.544 23.3151 107.091 23.7622C106.639 24.2093 106.382 24.8177 106.377 25.454V25.474V25.464ZM38.11 8.314C39.626 8.209 40.954 9.349 41.059 10.865C41.069 11.043 41.059 11.231 41.049 11.409C41.049 13.406 39.971 14.546 38.109 14.546H35.851V8.314H38.11ZM37.995 13.668C38.5132 13.6973 39.0219 13.5201 39.4099 13.1753C39.7978 12.8305 40.0333 12.3461 40.065 11.828C40.065 11.691 40.065 11.556 40.045 11.419C40.1153 10.9019 39.9775 10.378 39.6617 9.96247C39.3459 9.54695 38.8781 9.27378 38.361 9.203C38.2363 9.18397 38.1096 9.18061 37.984 9.193H36.814V13.668H37.994H37.995ZM42.147 12.194C42.0932 11.6053 42.2737 11.0192 42.6495 10.5629C43.0253 10.1066 43.566 9.81697 44.154 9.757C44.7429 9.70312 45.3292 9.88382 45.7855 10.2598C46.2418 10.6358 46.5313 11.1767 46.591 11.765C46.601 11.911 46.601 12.047 46.591 12.193C46.6196 12.4849 46.5903 12.7796 46.5048 13.0602C46.4192 13.3408 46.2792 13.6017 46.0927 13.8281C45.9061 14.0545 45.6768 14.2418 45.4177 14.3794C45.1587 14.517 44.8751 14.6022 44.583 14.63C44.2551 14.662 43.9242 14.621 43.614 14.5098C43.3038 14.3986 43.0222 14.2201 42.7892 13.9871C42.5563 13.754 42.3779 13.4723 42.2669 13.1621C42.1558 12.8519 42.1149 12.5209 42.147 12.193V12.194ZM45.6291 12.194C45.6291 11.169 45.169 10.572 44.364 10.572C43.558 10.572 43.098 11.169 43.098 12.194C43.098 13.218 43.548 13.814 44.364 13.814C45.169 13.814 45.6291 13.218 45.6291 12.194ZM51.5271 14.546L50.5541 11.075H50.481L49.509 14.547H48.557L47.26 9.84H48.201L49.048 13.437H49.1221L50.0941 9.84H50.9841L51.9561 13.437H52.029L52.8651 9.84H53.7961L52.5 14.547H51.528L51.5271 14.546ZM54.8731 9.84H55.773V10.593H55.8461C56.0861 10.039 56.6511 9.705 57.2471 9.757C57.4477 9.74118 57.6495 9.76522 57.8409 9.82774C58.0322 9.89025 58.2093 9.99 58.3619 10.1212C58.5146 10.2525 58.6397 10.4126 58.7302 10.5925C58.8206 10.7723 58.8746 10.9682 58.889 11.169C58.889 11.284 58.889 11.399 58.8791 11.503V14.546H57.9481V11.733C57.9481 10.98 57.624 10.603 56.933 10.603C56.7915 10.596 56.65 10.617 56.5165 10.6648C56.3831 10.7127 56.2605 10.7863 56.1556 10.8816C56.0507 10.977 55.9656 11.092 55.9053 11.2203C55.845 11.3485 55.8106 11.4874 55.8041 11.629V14.546H54.8741V9.84H54.8731ZM60.3531 8H61.2831V14.546H60.3531V8ZM62.57 12.194C62.5162 11.6052 62.6969 11.0189 63.0729 10.5625C63.4489 10.1062 63.9898 9.81673 64.5781 9.757C65.1667 9.7034 65.7527 9.88423 66.2089 10.2602C66.665 10.6362 66.9543 11.1769 67.014 11.765C67.024 11.911 67.024 12.047 67.014 12.193C67.0426 12.4849 67.0133 12.7795 66.9279 13.06C66.8424 13.3405 66.7025 13.6014 66.516 13.8278C66.3296 14.0542 66.1004 14.2415 65.8414 14.3792C65.5825 14.5168 65.299 14.6021 65.0071 14.63C64.6788 14.6631 64.3474 14.6228 64.0367 14.512C63.726 14.4013 63.4438 14.2228 63.2105 13.9895C62.9773 13.7563 62.7988 13.4741 62.688 13.1634C62.5773 12.8527 62.537 12.5212 62.57 12.193V12.194ZM66.0521 12.194C66.0521 11.169 65.5921 10.572 64.7871 10.572C63.9821 10.572 63.522 11.169 63.522 12.194C63.522 13.218 63.9721 13.814 64.7871 13.814C65.5921 13.814 66.0521 13.218 66.0521 12.194ZM67.9971 13.218C67.9971 12.371 68.6251 11.88 69.7441 11.817L71.02 11.744V11.336C71.02 10.834 70.695 10.562 70.058 10.562C69.535 10.562 69.179 10.75 69.075 11.085H68.1751C68.2691 10.28 69.0331 9.757 70.099 9.757C71.281 9.757 71.95 10.342 71.95 11.336V14.556H71.0511V13.898H70.978C70.8279 14.1341 70.6185 14.3268 70.3708 14.457C70.1231 14.5871 69.8457 14.6502 69.5661 14.64C69.3806 14.6599 69.193 14.643 69.0141 14.5901C68.8352 14.5372 68.6685 14.4494 68.5237 14.3318C68.3789 14.2142 68.2588 14.0692 68.1703 13.9049C68.0818 13.7407 68.0266 13.5606 68.0081 13.375V13.229L67.9981 13.219L67.9971 13.218ZM71.02 12.821V12.424L69.8701 12.497C69.2211 12.539 68.9281 12.758 68.9281 13.177C68.9281 13.595 69.294 13.846 69.796 13.846C70.0885 13.8742 70.3803 13.7855 70.6076 13.5992C70.8349 13.413 70.9792 13.1443 71.0091 12.852V12.81L71.019 12.82L71.02 12.821ZM73.174 12.194C73.174 10.708 73.937 9.767 75.129 9.767C75.4235 9.75305 75.7158 9.82347 75.9716 9.96997C76.2274 10.1165 76.4361 10.333 76.573 10.594H76.646V8.01H77.576V14.556H76.688V13.813H76.615C76.467 14.0714 76.2516 14.2848 75.9919 14.4304C75.7321 14.576 75.4377 14.6485 75.14 14.64C73.937 14.64 73.184 13.698 73.184 12.203L73.174 12.193V12.194ZM74.136 12.194C74.136 13.197 74.606 13.794 75.391 13.794C76.175 13.794 76.656 13.187 76.656 12.194C76.656 11.2 76.165 10.594 75.391 10.594C74.617 10.594 74.136 11.2 74.136 12.194ZM81.415 12.193C81.3614 11.6045 81.5421 11.0186 81.9179 10.5625C82.2936 10.1064 82.8342 9.81698 83.422 9.757C84.646 9.631 85.733 10.541 85.859 11.765C85.869 11.911 85.869 12.047 85.859 12.193C85.8876 12.4849 85.8583 12.7796 85.7728 13.0602C85.6872 13.3408 85.5472 13.6017 85.3607 13.8281C85.1741 14.0545 84.9448 14.2418 84.6857 14.3794C84.4267 14.517 84.143 14.6022 83.851 14.63C83.5231 14.662 83.1922 14.621 82.882 14.5098C82.5718 14.3986 82.2902 14.2201 82.0572 13.9871C81.8243 13.754 81.6459 13.4723 81.5349 13.1621C81.4238 12.8519 81.3829 12.5209 81.415 12.193ZM84.897 12.193C84.897 11.169 84.437 10.573 83.631 10.573C82.826 10.573 82.366 11.169 82.366 12.193C82.366 13.218 82.816 13.814 83.632 13.814C84.437 13.814 84.897 13.218 84.897 12.194V12.193ZM87.103 9.84H88.003V10.593H88.076C88.316 10.039 88.881 9.705 89.477 9.757C89.6777 9.74118 89.8795 9.76522 90.0709 9.82774C90.2622 9.89025 90.4393 9.99 90.5919 10.1212C90.7446 10.2525 90.8697 10.4126 90.9602 10.5925C91.0506 10.7723 91.1046 10.9682 91.119 11.169C91.119 11.284 91.119 11.399 91.109 11.503V14.546H90.178V11.733C90.178 10.98 89.854 10.603 89.164 10.603C89.0224 10.5959 88.8808 10.6168 88.7472 10.6645C88.6137 10.7123 88.4909 10.7859 88.3859 10.8813C88.2809 10.9766 88.1958 11.0917 88.1354 11.22C88.075 11.3484 88.0406 11.4873 88.034 11.629V14.546H87.104V9.84H87.103ZM96.348 8.67V9.86H97.373V10.645H96.348V13.071C96.348 13.562 96.546 13.782 97.018 13.782C97.132 13.782 97.258 13.782 97.373 13.762V14.535C97.2069 14.5627 97.0393 14.58 96.871 14.587C95.835 14.587 95.427 14.221 95.427 13.311V10.655H94.685V9.871H95.427V8.68H96.358L96.348 8.67ZM98.638 8H99.558V10.594H99.631C99.755 10.3235 99.9587 10.0972 100.215 9.94569C100.471 9.79413 100.767 9.72446 101.064 9.746C101.267 9.73453 101.471 9.76334 101.663 9.83078C101.856 9.89822 102.033 10.003 102.184 10.139C102.336 10.275 102.459 10.4396 102.547 10.6234C102.635 10.8072 102.685 11.0066 102.696 11.21C102.696 11.305 102.696 11.41 102.685 11.503V14.546H101.754V11.733C101.754 10.98 101.409 10.603 100.75 10.603C100.606 10.59 100.461 10.6058 100.324 10.6495C100.186 10.6932 100.058 10.7639 99.9485 10.8575C99.8386 10.9511 99.7484 11.0657 99.6832 11.1945C99.618 11.3234 99.5792 11.464 99.569 11.608V14.546H98.638V8ZM108.112 13.281C107.987 13.7117 107.714 14.0844 107.341 14.3332C106.968 14.5821 106.519 14.6911 106.073 14.641C105.506 14.6561 104.956 14.4452 104.544 14.0547C104.132 13.6643 103.892 13.1263 103.877 12.559C103.877 12.444 103.877 12.329 103.898 12.214C103.857 11.9063 103.882 11.5934 103.973 11.2964C104.063 10.9994 104.216 10.7252 104.421 10.4923C104.626 10.2594 104.879 10.0733 105.162 9.94644C105.445 9.81959 105.753 9.75499 106.063 9.757C107.37 9.757 108.165 10.657 108.165 12.131V12.455H104.839V12.507C104.777 13.197 105.289 13.793 105.979 13.857H106.094C106.544 13.909 106.994 13.689 107.213 13.281H108.112ZM104.839 11.765H107.213C107.225 11.6165 107.207 11.4673 107.16 11.3258C107.114 11.1843 107.04 11.0534 106.943 10.9406C106.845 10.8279 106.727 10.7355 106.594 10.6688C106.461 10.6021 106.316 10.5624 106.167 10.552H106.052C105.383 10.552 104.839 11.075 104.829 11.744V11.775L104.839 11.765Z" fill="white"/>
</g>
<defs>
<clipPath id="clip0_204_9">
<rect width="123" height="40" fill="white"/>
</clipPath>
</defs>
</svg>

<svg width="123" height="40" viewBox="0 0 123 40" fill="none" xmlns="http://www.w3.org/2000/svg"><g clip-path="url(#clip0_204_9)"><path fill="#000" d="M0 0h123v40H0z"/><path d="M24.463 20.413a5.158 5.158 0 012.468-4.34 5.307 5.307 0 00-4.173-2.259c-1.757-.188-3.461 1.046-4.35 1.046-.889 0-2.29-1.035-3.775-1.004a5.557 5.557 0 00-4.675 2.855c-2.018 3.503-.512 8.648 1.422 11.482.973 1.391 2.102 2.939 3.587 2.876 1.454-.063 1.998-.92 3.744-.92 1.747 0 2.238.92 3.755.889 1.558-.021 2.54-1.391 3.471-2.792a11.341 11.341 0 001.59-3.232 4.998 4.998 0 01-3.054-4.601h-.01zm-2.866-8.46a5.081 5.081 0 001.161-3.65 5.168 5.168 0 00-3.357 1.736 4.842 4.842 0 00-1.192 3.514 4.298 4.298 0 003.388-1.6zm21.198 15.603h-4.947l-1.192 3.513h-2.091l4.685-12.988h2.175L46.11 31.07h-2.133l-1.193-3.513h.01l.001-.001zm-4.434-1.621h3.922l-1.935-5.7h-.053l-1.934 5.7zm17.882.397c0 2.939-1.579 4.831-3.953 4.831a3.22 3.22 0 01-2.98-1.652h-.042v4.685h-1.945V21.595h1.882v1.579h.032a3.356 3.356 0 013.011-1.673c2.406 0 3.985 1.903 3.985 4.831h.01zm-1.997 0c0-1.914-.994-3.179-2.5-3.179-1.505 0-2.488 1.286-2.488 3.18 0 1.892 1.003 3.189 2.488 3.189s2.5-1.255 2.5-3.19zm12.413 0c0 2.939-1.58 4.831-3.953 4.831a3.22 3.22 0 01-2.98-1.652h-.042v4.685h-1.945V21.595h1.882v1.579h.031a3.357 3.357 0 013.012-1.673c2.405 0 3.984 1.903 3.984 4.831h.011zm-1.998 0c0-1.914-.993-3.179-2.499-3.179-1.506 0-2.489 1.286-2.489 3.18 0 1.892 1.004 3.189 2.49 3.189 1.484 0 2.5-1.255 2.5-3.19h-.002zm8.889 1.119c.147 1.286 1.391 2.133 3.106 2.133 1.715 0 2.813-.847 2.813-2.008 0-1.003-.71-1.61-2.394-2.028l-1.684-.408c-2.384-.575-3.493-1.694-3.493-3.503 0-2.238 1.956-3.776 4.727-3.776 2.771 0 4.622 1.538 4.685 3.776h-1.966c-.115-1.297-1.192-2.081-2.75-2.081-1.559 0-2.636.794-2.636 1.945 0 .92.68 1.453 2.353 1.872l1.433.355c2.666.628 3.775 1.705 3.775 3.598 0 2.426-1.935 3.952-5.01 3.952-2.875 0-4.82-1.484-4.945-3.837h1.986v.01zm12.163-8.094v2.238h1.798v1.537h-1.798v5.218c0 .816.355 1.192 1.15 1.192.209 0 .429-.02.638-.041v1.526a6.251 6.251 0 01-1.077.095c-1.914 0-2.667-.722-2.667-2.552v-5.428h-1.38v-1.537h1.38v-2.238h1.956v-.01zm2.844 6.975c0-2.98 1.757-4.852 4.486-4.852 2.73 0 4.486 1.872 4.486 4.852 0 2.98-1.736 4.852-4.486 4.852s-4.486-1.861-4.486-4.852zm7.007 0c0-2.04-.942-3.252-2.51-3.252-1.569 0-2.51 1.213-2.51 3.252 0 2.04.93 3.252 2.51 3.252 1.579 0 2.51-1.192 2.51-3.252zm3.576-4.727h1.851v1.61h.042a2.28 2.28 0 012.28-1.714c.219 0 .449.02.669.073v1.82a2.72 2.72 0 00-.868-.116 1.964 1.964 0 00-2.029 2.186v5.616H99.14v-9.475zm13.804 6.683c-.262 1.715-1.935 2.896-4.079 2.896-2.75 0-4.465-1.84-4.465-4.81 0-2.97 1.715-4.894 4.382-4.894 2.666 0 4.266 1.798 4.266 4.674v.67h-6.682v.115a2.474 2.474 0 002.238 2.677c.105 0 .209.01.303 0a2.15 2.15 0 002.186-1.328h1.851zm-6.567-2.824h4.737a2.265 2.265 0 00-2.144-2.395h-.178a2.405 2.405 0 00-2.415 2.385v.02-.01zM38.11 8.314c1.516-.105 2.844 1.035 2.949 2.551.01.178 0 .366-.01.544 0 1.997-1.078 3.137-2.94 3.137h-2.258V8.314h2.259zm-.115 5.354a1.963 1.963 0 002.07-1.84c0-.137 0-.272-.02-.409a1.969 1.969 0 00-1.684-2.216 1.514 1.514 0 00-.377-.01h-1.17v4.475h1.181zm4.152-1.474a2.244 2.244 0 012.007-2.437 2.244 2.244 0 012.437 2.008c.01.146.01.282 0 .428a2.23 2.23 0 01-2.008 2.437 2.23 2.23 0 01-2.436-2.437v.001zm3.482 0c0-1.025-.46-1.622-1.265-1.622-.806 0-1.266.597-1.266 1.622 0 1.024.45 1.62 1.266 1.62.805 0 1.265-.596 1.265-1.62zm5.898 2.352l-.973-3.471h-.073l-.972 3.472h-.952L47.26 9.84h.941l.847 3.597h.074l.972-3.597h.89l.972 3.597h.073l.836-3.597h.931L52.5 14.547h-.972v-.001zm3.346-4.706h.9v.753h.073c.24-.554.805-.888 1.401-.836a1.526 1.526 0 011.642 1.412c0 .115 0 .23-.01.334v3.043h-.93v-2.813c0-.753-.325-1.13-1.016-1.13a1.077 1.077 0 00-1.129 1.026v2.917h-.93V9.84zM60.353 8h.93v6.546h-.93V8zm2.217 4.194a2.245 2.245 0 012.008-2.437 2.244 2.244 0 012.436 2.008c.01.146.01.282 0 .428a2.23 2.23 0 01-2.007 2.437 2.224 2.224 0 01-2.437-2.437v.001zm3.482 0c0-1.025-.46-1.622-1.265-1.622-.805 0-1.265.597-1.265 1.622 0 1.024.45 1.62 1.265 1.62.805 0 1.265-.596 1.265-1.62zm1.945 1.024c0-.847.628-1.338 1.747-1.401l1.276-.073v-.408c0-.502-.325-.774-.962-.774-.523 0-.879.188-.983.523h-.9c.094-.805.858-1.328 1.924-1.328 1.182 0 1.851.585 1.851 1.579v3.22h-.899v-.658h-.073a1.604 1.604 0 01-1.412.742 1.415 1.415 0 01-1.558-1.265v-.146l-.01-.01v-.001zm3.023-.397v-.397l-1.15.073c-.649.042-.942.261-.942.68 0 .418.366.669.868.669a1.112 1.112 0 001.213-.994v-.042l.01.01.001.001zm2.154-.627c0-1.486.763-2.427 1.955-2.427a1.548 1.548 0 011.444.827h.073V8.01h.93v6.546h-.888v-.743h-.073a1.645 1.645 0 01-1.475.827c-1.203 0-1.956-.942-1.956-2.437l-.01-.01v.001zm.962 0c0 1.003.47 1.6 1.255 1.6.784 0 1.265-.607 1.265-1.6 0-.994-.491-1.6-1.265-1.6-.774 0-1.255.606-1.255 1.6zm7.279-.001a2.244 2.244 0 012.007-2.436c1.224-.126 2.311.784 2.437 2.008.01.146.01.282 0 .428a2.23 2.23 0 01-2.008 2.437 2.23 2.23 0 01-2.436-2.437zm3.482 0c0-1.024-.46-1.62-1.266-1.62-.805 0-1.265.596-1.265 1.62 0 1.025.45 1.621 1.266 1.621.805 0 1.265-.596 1.265-1.62v-.001zm2.206-2.353h.9v.753h.073c.24-.554.805-.888 1.401-.836a1.526 1.526 0 011.642 1.412c0 .115 0 .23-.01.334v3.043h-.931v-2.813c0-.753-.324-1.13-1.014-1.13a1.079 1.079 0 00-1.13 1.026v2.917h-.93V9.84h-.001zm9.245-1.17v1.19h1.025v.785h-1.025v2.426c0 .491.198.711.67.711.114 0 .24 0 .355-.02v.773a4.083 4.083 0 01-.502.052c-1.036 0-1.444-.366-1.444-1.276v-2.656h-.742v-.784h.742V8.68h.931l-.01-.01zm2.29-.67h.92v2.594h.073a1.46 1.46 0 011.433-.848 1.546 1.546 0 011.632 1.464c0 .095 0 .2-.011.293v3.043h-.931v-2.813c0-.753-.345-1.13-1.004-1.13a1.082 1.082 0 00-1.067.591c-.065.13-.104.27-.114.414v2.938h-.931V8zm9.474 5.281a1.902 1.902 0 01-2.039 1.36 2.14 2.14 0 01-2.196-2.082c0-.115 0-.23.021-.345a2.17 2.17 0 012.165-2.457c1.307 0 2.102.9 2.102 2.374v.324h-3.326v.052c-.062.69.45 1.286 1.14 1.35h.115c.45.052.9-.168 1.119-.576h.899zm-3.273-1.516h2.374a1.124 1.124 0 00-1.046-1.213h-.115c-.669 0-1.213.523-1.223 1.192v.031l.01-.01z" fill="#fff"/></g><defs><clipPath id="clip0_204_9"><path fill="#fff" d="M0 0h123v40H0z"/></clipPath></defs></svg>
